svgs/thin/car-mirrors.svg

<svg xmlns="http://www.w3.org/2000/svg" viewBox="0 0 576 512"><!--! Font Awesome Pro 6.6.0 by @fontawesome - https://fontawesome.com License - https://fontawesome.com/license (Commercial License) Copyright 2024 Fonticons, Inc. --><path d="M138.4 88.6c6.9-24 28.8-40.6 53.8-40.6l191.4 0c25 0 47 16.6 53.8 40.6L467.7 194c-6.4-1.3-12.9-2-19.7-2l-320 0c-6.7 0-13.3 .7-19.7 2L138.4 88.6zM88 200l0 .7c-4.6 2.1-8.9 4.5-13.1 7.3L32 208c-8.8 0-16-7.2-16-16s7.2-16 16-16l32 0c13.3 0 24 10.7 24 24zM123 84.2L96.6 176.8C89.3 166.6 77.4 160 64 160l-32 0c-17.7 0-32 14.3-32 32s14.3 32 32 32l24.4 0C41.2 241 32 263.4 32 288l0 96 0 16 0 48c0 17.7 14.3 32 32 32l32 0c17.7 0 32-14.3 32-32l0-48 320 0 0 48c0 17.7 14.3 32 32 32l32 0c17.7 0 32-14.3 32-32l0-48 0-16 0-96c0-24.6-9.2-47-24.4-64l24.4 0c17.7 0 32-14.3 32-32s-14.3-32-32-32l-32 0c-13.4 0-25.3 6.6-32.6 16.8L453 84.2C444.1 53.3 415.9 32 383.7 32L192.3 32c-32.1 0-60.4 21.3-69.2 52.2zM528 384l-64 0-16 0-320 0-16 0-64 0 0-96c0-26.2 12.6-49.4 32-64c0 0 0 0 0 0s0 0 0 0c13.4-10 30-16 48-16l320 0c18 0 34.6 6 48 16c0 0 0 0 0 0s0 0 0 0c19.4 14.6 32 37.8 32 64l0 96zm-64 16l64 0 0 48c0 8.8-7.2 16-16 16l-32 0c-8.8 0-16-7.2-16-16l0-48zM48 448l0-48 64 0 0 48c0 8.8-7.2 16-16 16l-32 0c-8.8 0-16-7.2-16-16zM488 200.7l0-.7c0-13.3 10.7-24 24-24l32 0c8.8 0 16 7.2 16 16s-7.2 16-16 16l-42.9 0c-4.1-2.8-8.5-5.2-13.1-7.3zM112 288a16 16 0 1 1 32 0 16 16 0 1 1 -32 0zm48 0a32 32 0 1 0 -64 0 32 32 0 1 0 64 0zm288-16a16 16 0 1 1 0 32 16 16 0 1 1 0-32zm0 48a32 32 0 1 0 0-64 32 32 0 1 0 0 64z"/></svg>

<svg xmlns="http://www.w3.org/2000/svg" viewBox="0 0 576 512"><!--! Font Awesome Pro 6.4.0 by @fontawesome - https://fontawesome.com License - https://fontawesome.com/license (Commercial License) Copyright 2023 Fonticons, Inc. --><path d="M138.4 88.6c6.9-24 28.8-40.6 53.8-40.6H383.7c25 0 47 16.6 53.8 40.6L467.7 194c-6.4-1.3-12.9-2-19.7-2H128c-6.7 0-13.3 .7-19.7 2L138.4 88.6zM88 200v.7c-4.6 2.1-8.9 4.5-13.1 7.3H32c-8.8 0-16-7.2-16-16s7.2-16 16-16H64c13.3 0 24 10.7 24 24zM123 84.2L96.6 176.8C89.3 166.6 77.4 160 64 160H32c-17.7 0-32 14.3-32 32s14.3 32 32 32H56.4C41.2 241 32 263.4 32 288v96 16 48c0 17.7 14.3 32 32 32H96c17.7 0 32-14.3 32-32V400H448v48c0 17.7 14.3 32 32 32h32c17.7 0 32-14.3 32-32V400 384 288c0-24.6-9.2-47-24.4-64H544c17.7 0 32-14.3 32-32s-14.3-32-32-32H512c-13.4 0-25.3 6.6-32.6 16.8L453 84.2C444.1 53.3 415.9 32 383.7 32H192.3c-32.1 0-60.4 21.3-69.2 52.2zM528 384H464 448 128 112 48V288c0-26.2 12.6-49.4 32-64h0v0c13.4-10 30-16 48-16H448c18 0 34.6 6 48 16v0h0c19.4 14.6 32 37.8 32 64v96zm-64 16h64v48c0 8.8-7.2 16-16 16H480c-8.8 0-16-7.2-16-16V400zM48 448V400h64v48c0 8.8-7.2 16-16 16H64c-8.8 0-16-7.2-16-16zM488 200.7V200c0-13.3 10.7-24 24-24h32c8.8 0 16 7.2 16 16s-7.2 16-16 16H501.1c-4.1-2.8-8.5-5.2-13.1-7.3zM112 288a16 16 0 1 1 32 0 16 16 0 1 1 -32 0zm48 0a32 32 0 1 0 -64 0 32 32 0 1 0 64 0zm288-16a16 16 0 1 1 0 32 16 16 0 1 1 0-32zm0 48a32 32 0 1 0 0-64 32 32 0 1 0 0 64z"/></svg>
